!!!!SEGMENT: pl-sa--230-a-vi-34--003_luna-georgius--litania-pater-de-caelis.krn
!!!cenid: 17xx:497
!!!COM: Luna, Georgius
!!!COM-rismid: pe41010079
!!!CDT:
!!!CNT:
!!!OPR: Litania
!!!OTL: Pater de caelis
!!!OMV: 003
!!!PDT:
!!!AGN: Sacred; Mass
!!!SMS-siglum: PL-SA
!!!SMS-shelfmark: 230/A VI 34
!!!SMS-shelfwork: 001-003 M
!!!SMS-variant: Violino 1mo: PL-SA 230/A VI 34:7
!!!SMS-altvar: Violino 1mo: PL-SA 230/A VI 34:29
!!!NIFC-rismid: 1001070084
!!!URL-scan: http://bc.bdsandomierz.pl/dlibra/publication/1606/edition/1574/content
!!!ONB-nifc: UWAGA: części Litanii: Simphonia, Kirie, Pater de caelis, Sancta Maria, Mater Christi, Mater amabilis, Virgo prudentissima, Speculum, Rosa mistica, Salus infirmorum, Regina angelorum, Agnus Dei
**kern	**dynam	**kern	**dynam	**kern	**dynam	**kern	**kern	**text	**kern	**kern
*part7	*part7	*part6	*part6	*part5	*part5	*part4	*part3	*part3	*part2	*part1
*staff7	*	*staff6	*	*staff5	*	*staff4	*staff3	*staff3	*staff2	*staff1
*I"Fundamenti	*	*I"Violino 2do.	*	*I"Violino 1mo.	*	*I"Tenore	*I"Canto	*	*I"Clarino 2do ex C	*I"Clarino 1mo ex C
*I'bc	*	*I'vl 2	*	*I'vl 1	*	*I'T	*I'S	*	*I'clno 2 ex C	*I'clno 1 ex C
*clefF4	*	*clefG2	*	*clefG2	*	*clefC4	*clefC1	*	*clefG2	*clefG2
*k[]	*	*k[]	*	*k[]	*	*k[]	*k[]	*	*k[]	*k[]
*C:	*	*C:	*	*C:	*	*C:	*C:	*	*C:	*C:
*M4/4	*	*M4/4	*	*M4/4	*	*M4/4	*M4/4	*	*M4/4	*M4/4
*met(c)	*	*met(c)	*	*met(c)	*	*met(c)	*met(c)	*	*met(c)	*met(c)
=1	=1	=1	=1	=1	=1	=1	=1	=1	=1	=1
*	*	*	*	*2\right	*	*	*	*	*	*
!LO:SIC:o:s=:v:4\, 8\	!	!LO:SIC:o:s=:v:2\, 4\, 8\, 16\	!	!	!	!	!	!	!	!
!LO:TX:rj:b:t=Pater	!	!LO:SIC:o:s=:v:metrum z kropką	!	!	!	!	!LO:SIC:o:s=:v:2\, 4\, 8\, 16\, 32\	!	!	!
!LO:TX:rj:a:t=andante	!	!LO:TX:rj:b:t=Pater	!	!LO:SIC:o:s=:v:2\, 4\, 8\, 16\, 32\	!	!	!LO:TX:a:t=andante	!	!	!
!LO:SIC:o:s=:v:metrum z kropką	!	!LO:SIC:o:s=:v:andante (wpisane dwa razy różnym tuszem - ręka ta sama?)	!	!LO:SIC:o:s=:v:metrum z kropką	!	!LO:TX:a:t=Pater Tacet	!LO:SIC:o:s=:v:metrum z kropką	!	!LO:TX:a:t=Tacet\nPater	!LO:TX:a:t=Pater Tacet
!	!	!	!	!LO:TX:rj:b:t=Pater	!	!	!	!	!	!
8C/L	.	8e/L	.	2cc\	.	1ryy	00r	.	1ryy	1ryy
8C/	.	8e/	.	.	.	.	.	.	.	.
8C/	.	8e/	.	.	.	.	.	.	.	.
8C/J	.	8e/J	.	.	.	.	.	.	.	.
8C/L	.	8e/L	.	2g/	.	.	.	.	.	.
8C/	.	8e/	.	.	.	.	.	.	.	.
8C/	.	8e/	.	.	.	.	.	.	.	.
8C/J	.	8e/J	.	.	.	.	.	.	.	.
=2	=2	=2	=2	=2	=2	=2	=2	=2	=2	=2
8C/L	.	(32f/KLL	.	(32a/KLL	.	1ryy	.	.	1ryy	1ryy
.	.	16.c/)	.	16.f/)	.	.	.	.	.	.
8C/	.	(32a/K	.	(32cc/K	.	.	.	.	.	.
.	.	16.f/JJ)	.	16.a/JJ)	.	.	.	.	.	.
8C/	.	(32cc/KLL	.	(32ff/KLL	.	.	.	.	.	.
.	.	16.a/JJ)	.	16.cc/)	.	.	.	.	.	.
8C/J	.	(32a/KLL	.	(32a/K	.	.	.	.	.	.
.	.	16.f/JJ)	.	16.f/JJ)	.	.	.	.	.	.
8C/L	.	32f/KLL	.	32a/KLL	.	.	.	.	.	.
.	.	16.c/JJ	.	16.f/J	.	.	.	.	.	.
8C/	.	8e/	.	8g/J	.	.	.	.	.	.
8C/	.	4r	.	4r	.	.	.	.	.	.
8C/J	.	.	.	.	.	.	.	.	.	.
!	!	!LO:LB:g=original	!	!	!	!	!	!	!	!
=3	=3	=3	=3	=3	=3	=3	=3	=3	=3	=3
8GG/L	.	8d/L	.	2f/	.	1ryy	.	.	1ryy	1ryy
8GG/	.	8d/	.	.	.	.	.	.	.	.
8GG/	.	8d/	.	.	.	.	.	.	.	.
8GG/J	.	8d/J	.	.	.	.	.	.	.	.
8GG/L	.	8d/L	.	2G/	.	.	.	.	.	.
8GG/	.	8d/	.	.	.	.	.	.	.	.
8GG/	.	8d/	.	.	.	.	.	.	.	.
8GG/J	.	8d/J	.	.	.	.	.	.	.	.
=4	=4	=4	=4	=4	=4	=4	=4	=4	=4	=4
*	*	*	*	*Xtuplet	*	*	*	*	*	*
8GG/L	.	8d/	.	24g/LL	.	1ryy	.	.	1ryy	1ryy
.	.	.	.	24a/	.	.	.	.	.	.
.	.	.	.	24b/JJ	.	.	.	.	.	.
!	!	!LO:TUP:a:problem:klamra łukowa	!	!	!	!	!	!	!	!
8GG/	.	24g/LL	.	24b\LL	.	.	.	.	.	.
.	.	24a/	.	24cc\	.	.	.	.	.	.
.	.	24b/JJ	.	24dd\JJ	.	.	.	.	.	.
!	!	!LO:TUP:a:problem:klamra łukowa	!	!	!	!	!	!	!	!
8GG/	.	24b\LL	.	24dd\LL	.	.	.	.	.	.
.	.	24cc\	.	24ee\	.	.	.	.	.	.
.	.	24dd\JJ	.	24ff\JJ	.	.	.	.	.	.
8GG/J	.	24ff\LL	.	24aa\LL	.	.	.	.	.	.
.	.	24ee\	.	24gg\	.	.	.	.	.	.
.	.	24dd\JJ	.	24ff\JJ	.	.	.	.	.	.
8C/L	.	16cc\LL	.	16ee\LL	.	.	.	.	.	.
.	.	16b\J	.	16dd\J	.	.	.	.	.	.
8C/	.	8cc\J	.	8ee\J	.	.	.	.	.	.
8C/	.	4r	.	4r	.	.	.	.	.	.
8C/J	.	.	.	.	.	.	.	.	.	.
!	!	!	!	!LO:LB:g=original	!	!	!	!	!	!
=5	=5	=5	=5	=5	=5	=5	=5	=5	=5	=5
!LO:TX:a:t=P:mixed beam:problem	!	!	!	!	!	!	!	!	!	!
8C/L	.	8g/L	.	4ee\	.	1ryy	00r	.	1ryy	1ryy
8c\	.	8g/	.	.	.	.	.	.	.	.
8c\	.	8g/	.	24ee\LL	.	.	.	.	.	.
.	.	.	.	24cc\	.	.	.	.	.	.
.	.	.	.	24ee\JJ	.	.	.	.	.	.
8c\J	.	8g/J	.	24gg\LL	.	.	.	.	.	.
.	.	.	.	24aa\	.	.	.	.	.	.
.	.	.	.	24cc\JJ	.	.	.	.	.	.
8G\L	.	8b\L	.	4dd\	.	.	.	.	.	.
8G\	.	8b\	.	.	.	.	.	.	.	.
8G\	.	8b\	.	24dd\LL	.	.	.	.	.	.
.	.	.	.	24b\	.	.	.	.	.	.
.	.	.	.	24dd\JJ	.	.	.	.	.	.
8G\J	.	8b\J	.	24ff#X\LL	.	.	.	.	.	.
.	.	.	.	24gg\	.	.	.	.	.	.
.	.	.	.	24cc\JJ	.	.	.	.	.	.
=6	=6	=6	=6	=6	=6	=6	=6	=6	=6	=6
8A\L	.	8f#X/L	.	4cc\	.	1ryy	.	.	1ryy	1ryy
8A\	.	8f#/	.	.	.	.	.	.	.	.
8D\	.	8a/	.	24cc\LL	.	.	.	.	.	.
.	.	.	.	24a\	.	.	.	.	.	.
.	.	.	.	24cc\JJ	.	.	.	.	.	.
8D\J	.	8a/J	.	24ff#X\LL	.	.	.	.	.	.
.	.	.	.	24aa\	.	.	.	.	.	.
.	.	.	.	24cc\JJ	.	.	.	.	.	.
!	!	!	!	!LO:SIC:o:s=:v:interpretacja znaku niepewna; dotyczy wszystkich mordentów	!	!	!	!	!	!
4G\	.	8a/L	.	8ccM\L	.	.	.	.	.	.
.	.	8g/J	.	8b\J	.	.	.	.	.	.
8C/L	.	4g/	.	4ee\	.	.	.	.	.	.
8AA/J	.	.	.	.	.	.	.	.	.	.
!LO:LB:g=original	!	!	!	!	!	!	!	!	!	!
=7	=7	=7	=7	=7	=7	=7	=7	=7	=7	=7
.	.	.	.	16qqff#X/LL	.	.	.	.	.	.
!LO:TX:a:t=P:mixed beam:problem	!	!	!	!	!	!	!	!	!	!
.	.	.	.	16qqgg/JJ	.	.	.	.	.	.
8BB\L	.	8b\L	.	16dd\LL	.	1ryy	.	.	1ryy	1ryy
.	.	.	.	16gg\	.	.	.	.	.	.
8C\	.	16cc\L	.	16cc\	.	.	.	.	.	.
.	.	16a\JJ	.	16a\JJ	.	.	.	.	.	.
8D\	.	8g/L	.	8gM/L	.	.	.	.	.	.
8DD/J	.	8f#X/J	.	8a/J	.	.	.	.	.	.
!LO:TX:a:t=P:mixed beam:problem	!	!	!	!	!	!	!	!	!	!
8GG/L	.	4g/	.	4g/	.	.	.	.	.	.
8G\	.	.	.	.	.	.	.	.	.	.
8E\	.	8g/L	.	16cc\LL	.	.	.	.	.	.
.	.	.	.	16ee\	.	.	.	.	.	.
8C\J	.	8e/J	.	16gg\	.	.	.	.	.	.
.	.	.	.	16b-X\JJ	.	.	.	.	.	.
!	!	!LO:LB:g=original	!	!	!	!	!	!	!	!
=8	=8	=8	=8	=8	=8	=8	=8	=8	=8	=8
!LO:TX:a:t=P:mixed beam:problem	!	!	!	!LO:SIC:s=q8b-	!	!	!	!	!	!
.	.	.	.	8qqb/	.	.	.	.	.	.
8F\L	.	8c/L	.	4a/	.	1ryy	.	.	1ryy	1ryy
8FF/	.	8c/	.	.	.	.	.	.	.	.
8F\	.	8a/	.	24aa\LL	.	.	.	.	.	.
.	.	.	.	24gg\	.	.	.	.	.	.
.	.	.	.	24ff\JJ	.	.	.	.	.	.
8F\J	.	8a/J	.	24ee\LL	.	.	.	.	.	.
.	.	.	.	24dd\	.	.	.	.	.	.
.	.	.	.	24cc\JJ	.	.	.	.	.	.
!LO:TX:a:t=P:mixed beam:problem	!	!	!	!	!	!	!	!	!	!
.	.	8qqe/	.	8qqcc/	.	.	.	.	.	.
8G\L	.	4d/	.	4cc\	.	.	.	.	.	.
8GG/J	.	.	.	.	.	.	.	.	.	.
!LO:TX:a:t=P:mixed beam:problem	!	!	!	!	!	!	!	!	!	!
8D\L	.	8b\L	.	4ff\	.	.	.	.	.	.
8GG/J	.	8dd\J	.	.	.	.	.	.	.	.
=9	=9	=9	=9	=9	=9	=9	=9	=9	=9	=9
*	*	*Xtuplet	*	*	*	*	*	*	*	*
!LO:TX:a:t=P:mixed beam:problem	!	!	!	!	!	!	!	!	!	!
8C/L	.	24ee\LL	.	24ee\LL	.	1ryy	0r	.	1ryy	1ryy
.	.	24ff\	.	24ff\	.	.	.	.	.	.
.	.	24gg\JJ	.	24gg\JJ	.	.	.	.	.	.
8F/	.	24aa\LL	.	24aa\LL	.	.	.	.	.	.
.	.	24bb\	.	24bb\	.	.	.	.	.	.
.	.	24ccc\JJ	.	24ccc\JJ	.	.	.	.	.	.
8G/	.	8cc\L	.	8cc\L	.	.	.	.	.	.
8GG/J	.	8dd\J	.	8ddM\J	.	.	.	.	.	.
!LO:TX:a:t=P:mixed beam:problem	!	!	!	!	!	!	!	!	!	!
!	!LO:DY:a	!LO:SIC:o:s=:v:interpretacja znaku niepewna; dotyczy wszystkich mordentów	!	!	!	!	!	!	!	!
8C\L	p	4ccM\	.	4cc\	.	.	.	.	.	.
8E\	.	.	.	.	.	.	.	.	.	.
!	!	!	!LO:DY:a	!	!	!	!	!	!	!
8D\	.	8b\L	p	4ffM\	.	.	.	.	.	.
8GG/J	.	8dd\J	.	.	.	.	.	.	.	.
!	!	!	!	!LO:LB:g=original	!	!	!	!	!	!
=10	=10	=10	=10	=10	=10	=10	=10	=10	=10	=10
!LO:TX:a:t=P:mixed beam:problem	!	!	!	!	!	!	!	!	!	!
!	!LO:DY:b	!	!	!	!	!	!	!	!	!
8C\L	f	24ee\LL	.	24ee\LL	.	1ryy	.	.	1ryy	1ryy
.	.	24ff\	.	24ff\	.	.	.	.	.	.
.	.	24gg\JJ	.	24gg\JJ	.	.	.	.	.	.
8F\	.	24aa\LL	.	24aa\LL	.	.	.	.	.	.
.	.	24bb\	.	24bb\	.	.	.	.	.	.
.	.	24ccc\JJ	.	24ccc\JJ	.	.	.	.	.	.
8G\	.	8cc\L	.	8cc\L	.	.	.	.	.	.
8GG/J	.	8dd\J	.	8dd\J	.	.	.	.	.	.
!LO:TX:a:t=Finis	!	!	!	!	!	!	!	!	!	!
4C/	.	8cc\	.	8cc\	.	.	.	.	.	.
.	.	(32g/LLL	.	32g/LLL	.	.	.	.	.	.
.	.	32f/	.	32f/	.	.	.	.	.	.
.	.	32e/	.	32e/	.	.	.	.	.	.
.	.	32d/JJJ)	.	32d/JJJ	.	.	.	.	.	.
!	!	!	!	!LO:SIC:o:s=:v:kreska z dwiema fermatami	!	!	!	!	!	!
4r	.	4c/	.	4c;/	.	.	.	.	.	.
=11||;;	=11||	=11||;;	=11||	=11||	=11||	=11||	=11||	=11||	=11||	=11||
*	*	*	*	*	*	*	*2\right	*	*	*
!	!LO:DY:a	!	!LO:DY:a	!	!LO:DY:a	!	!	!	!	!
8C/L	p	8e/L	p	2cc\	p	1ryy	2cc\	Pa-	1ryy	1ryy
8C/	.	8e/	.	.	.	.	.	.	.	.
8C/	.	8e/	.	.	.	.	.	.	.	.
8C/J	.	8e/J	.	.	.	.	.	.	.	.
8C/L	.	8e/L	.	2g/	.	.	2g\	-ter	.	.
8C/	.	8e/	.	.	.	.	.	.	.	.
8C/	.	8e/	.	.	.	.	.	.	.	.
8C/J	.	8e/J	.	.	.	.	.	.	.	.
=12	=12	=12	=12	=12	=12	=12	=12	=12	=12	=12
8C/L	.	(32f/KLL	.	(32a/KLL	.	1ryy	(32a\KLL	de-	1ryy	1ryy
.	.	16.c/JJ)	.	16.f/)	.	.	16.f\JJ)	.	.	.
8C/	.	(32a/KLL	.	(32cc/K	.	.	(32cc\KLL	.	.	.
.	.	16.f/JJ)	.	16.a/JJ)	.	.	16.a\JJ)	.	.	.
!	!	!LO:LB:g=original	!	!	!	!	!	!	!	!
8C/	.	(32cc/KLL	.	(32ff\KLL	.	.	(32ff\KLL	-ce-	.	.
.	.	16.a/JJ)	.	16.cc\JJ)	.	.	16.cc\JJ)	.	.	.
8C/J	.	(32f/KLL	.	(32a/KLL	.	.	(32a\KLL	-lis	.	.
.	.	16.c/JJ)	.	16.f/JJ)	.	.	16.f\JJ)	.	.	.
8C/L	.	(32f/KLL	.	(32a/KLL	.	.	32a\KLL	De-	.	.
.	.	16.c/J	.	16.f/JJ)	.	.	16.f\JJ	.	.	.
8C/	.	8e/J)	.	8g/L	.	.	8g\	-us	.	.
8C/	.	8e/L	.	8a/	.	.	4r	.	.	.
8C/J	.	8e/J	.	8a/J	.	.	.	.	.	.
!LO:LB:g=original	!	!	!	!	!	!	!	!	!	!
=13	=13	=13	=13	=13	=13	=13	=13	=13	=13	=13
8GG/L	.	8d/L	.	2f/	.	1ryy	2f/	Mi-	1ryy	1ryy
8GG/	.	8d/	.	.	.	.	.	.	.	.
8GG/	.	8d/	.	.	.	.	.	.	.	.
8GG/J	.	8d/J	.	.	.	.	.	.	.	.
8GG/L	.	8d/L	.	2G/	.	.	2g/	-se-	.	.
8GG/	.	8d/	.	.	.	.	.	.	.	.
8GG/	.	8d/	.	.	.	.	.	.	.	.
8GG/J	.	8d/J	.	.	.	.	.	.	.	.
=14	=14	=14	=14	=14	=14	=14	=14	=14	=14	=14
*	*	*	*	*	*	*	*Xtuplet	*	*	*
!	!	!	!	!	!	!	!LO:TUP:a:problem:klamra łukowa	!	!	!
8GG/L	.	8d/L	.	24g/LL	.	1ryy	24g\LL	-re	1ryy	1ryy
.	.	.	.	24a/	.	.	24a\	.	.	.
.	.	.	.	24b/JJ	.	.	24b\JJ	.	.	.
*	*	*tuplet	*	*	*	*	*	*	*	*
!	!	!LO:TUP:a:problem:klamra łukowa	!	!	!	!	!LO:TUP:a:problem:klamra łukowa	!	!	!
8GG/	.	24g/L	.	24b/LL	.	.	24b\LL	.	.	.
.	.	24a/	.	24cc/	.	.	24cc\	.	.	.
.	.	24b/JJ	.	24dd/JJ	.	.	24dd\JJ	.	.	.
!	!	!LO:TUP:a:problem:klamra łukowa	!	!	!	!	!LO:SIC:o:s=:v:brakuje "re"	!	!	!
8GG/	.	24b\LL	.	24dd\LL	.	.	24dd\LL	.	.	.
.	.	24cc\	.	24ee\	.	.	24ee\	.	.	.
.	.	24dd\JJ	.	24ff\JJ	.	.	24ff\JJ	.	.	.
!	!	!LO:TUP:a:problem:klamra łukowa	!	!	!	!	!	!	!	!
8GG/J	.	24ff\LL	.	24aa\LL	.	.	24aa\LL	no-	.	.
.	.	24ee\	.	24gg\	.	.	24gg\	.	.	.
.	.	24dd\JJ	.	24ff\JJ	.	.	24ff\JJ	.	.	.
8C/L	.	16cc\LL	.	16ee\LL	.	.	16ee\LL	-bis	.	.
.	.	16b\J	.	16dd\J	.	.	16dd\J	.	.	.
8C/	.	8cc\J	.	8ee\J	.	.	8ee\J	.	.	.
8C/	.	8g/L	.	8ee\L	.	.	4r	.	.	.
8C/J	.	8g/J	.	8ee\J	.	.	.	.	.	.
!	!	!	!	!LO:LB:g=original	!	!	!LO:LB:g=original	!	!	!
=15	=15	=15	=15	=15	=15	=15	=15	=15	=15	=15
!LO:TX:a:t=P:mixed beam:problem	!	!	!	!	!	!	!	!	!	!
8C/L	.	8g/L	.	4ee\	.	1ryy	4ee\	mi-	1ryy	1ryy
8c\	.	8g/	.	.	.	.	.	.	.	.
8c\	.	8g/	.	24ee\LL	.	.	8ee\L	-se-	.	.
.	.	.	.	24cc\	.	.	.	.	.	.
.	.	.	.	24ee\JJ	.	.	.	.	.	.
8c\J	.	8g/J	.	24gg\LL	.	.	16dd\L	.	.	.
.	.	.	.	24aa\	.	.	.	.	.	.
.	.	.	.	.	.	.	16cc\JJ	.	.	.
.	.	.	.	24cc\JJ	.	.	.	.	.	.
8G\L	.	8b\L	.	4dd\	.	.	4dd\	-re-	.	.
8G\	.	8b\	.	.	.	.	.	.	.	.
8G\	.	8b\	.	24dd\LL	.	.	8dd\L	.	.	.
.	.	.	.	24b\	.	.	.	.	.	.
.	.	.	.	24dd\JJ	.	.	.	.	.	.
8G\J	.	8b\J	.	24ff#X\LL	.	.	16cc\L	.	.	.
.	.	.	.	24gg\	.	.	.	.	.	.
.	.	.	.	.	.	.	16b\JJ	.	.	.
.	.	.	.	24b\JJ	.	.	.	.	.	.
=16	=16	=16	=16	=16	=16	=16	=16	=16	=16	=16
8D\L	.	8a/L	.	4cc\	.	1ryy	4cc\	.	1ryy	1ryy
8D\	.	8a/	.	.	.	.	.	.	.	.
8D\	.	8a/	.	24cc\LL	.	.	4cc\	-re	.	.
.	.	.	.	24a\	.	.	.	.	.	.
.	.	.	.	24cc\JJ	.	.	.	.	.	.
8D\J	.	8a/J	.	24ff#X\LL	.	.	.	.	.	.
.	.	.	.	24gg\	.	.	.	.	.	.
.	.	.	.	24cc\JJ	.	.	.	.	.	.
8G\L	.	8a/L	.	8cc\L	.	.	8cc\	no-	.	.
8G\	.	8g/	.	8b\J	.	.	8b\	-bis	.	.
8G\	.	8b/	.	8dd\L	.	.	8dd\	Fi-	.	.
8G\J	.	8cc/J	.	8ee\J	.	.	16ee\	-li	.	.
.	.	.	.	.	.	.	16ee\	Re-	.	.
=17	=17	=17	=17	=17	=17	=17	=17	=17	=17	=17
8G\L	.	8b\L	.	8dd\L	.	1ryy	16ee\LL	-dem-	1ryy	1ryy
.	.	.	.	.	.	.	16cc\JJ	.	.	.
8G\	.	8b\	.	8dd\	.	.	16gg\LL	-ptor	.	.
.	.	.	.	.	.	.	16ff#X\JJ	.	.	.
8G\	.	8b\	.	8dd\	.	.	8gg\	mun-	.	.
8G\J	.	8cc\J	.	8ee\J	.	.	8ee\	-di	.	.
8G\L	.	8b\L	.	8dd\L	.	.	16dd\LL	De-	.	.
.	.	.	.	.	.	.	16b\JJ	.	.	.
8G\	.	8b\	.	8dd\	.	.	16gg\LL	-us	.	.
.	.	.	.	.	.	.	16ff#X\JJ	.	.	.
8G\	.	8b\	.	8dd\	.	.	8gg\	mi-	.	.
8G\J	.	8cc\J	.	8ee\J	.	.	8ee\	-se-	.	.
!	!	!LO:LB:g=original	!	!	!	!	!	!	!	!
=18	=18	=18	=18	=18	=18	=18	=18	=18	=18	=18
!	!LO:DY:b	!	!	!	!	!	!	!	!	!
8BB/L	f	8b/L	.	8dd\L	.	1ryy	24dd\LL	-re	1ryy	1ryy
.	.	.	.	.	.	.	24gg\	.	.	.
.	.	.	.	.	.	.	24ff\JJ	.	.	.
!	!	!	!	!	!	!	!LO:SIC:o:s=:v:brakuje "re"	!	!	!
8C/	.	8a/	.	8cc\	.	.	24ee\LL	.	.	.
.	.	.	.	.	.	.	24dd\	.	.	.
!	!	!	!	!	!	!	!LO:SIC:o:s=:v:znak podziału tekstu	!	!	!
.	.	.	.	.	.	.	24cc\JJ	.	.	.
!	!	!	!	!	!	!	!LO:LB:g=original	!	!	!
8D/	.	8g/	.	8b\	.	.	8b\L	no-	.	.
8D/J	.	8f#X/J	.	8a\J	.	.	8a\J	.	.	.
!LO:TX:a:t=P:mixed beam:problem	!	!	!	!	!LO:DY:a	!	!	!	!	!
8GG/L	.	4g/	.	4b\	f	.	4g\	-bis	.	.
8B\	.	.	.	.	.	.	.	.	.	.
8A\	.	8f#X/L	.	4ccM\	.	.	4r	.	.	.
8D\J	.	8a/J	.	.	.	.	.	.	.	.
=19	=19	=19	=19	=19	=19	=19	=19	=19	=19	=19
*	*	*Xtuplet	*	*	*	*	*	*	*	*
8G\L	.	24b\LL	.	24b\LL	.	1ryy	0r	.	1ryy	1ryy
.	.	24cc\	.	24cc\	.	.	.	.	.	.
.	.	24dd\JJ	.	24dd\JJ	.	.	.	.	.	.
8C\	.	24ee\LL	.	24ee\LL	.	.	.	.	.	.
.	.	24ff#X\	.	24ff\	.	.	.	.	.	.
.	.	24gg\JJ	.	24gg\JJ	.	.	.	.	.	.
8D\	.	8g/L	.	8g/L	.	.	.	.	.	.
8D\J	.	8a/J	.	8a/J	.	.	.	.	.	.
!LO:TX:a:t=P:mixed beam:problem	!LO:DY:a	!	!	!	!LO:DY:a	!	!	!	!	!
8GG/L	p	4g/	.	4g/	p	.	.	.	.	.
8B\	.	.	.	.	.	.	.	.	.	.
!	!	!	!LO:DY:a	!	!	!	!	!	!	!
8A\	.	8f#X/L	p	4ccM\	.	.	.	.	.	.
8D\J	.	8a/J	.	.	.	.	.	.	.	.
!LO:LB:g=original	!	!	!	!	!	!	!	!	!	!
=20	=20	=20	=20	=20	=20	=20	=20	=20	=20	=20
!	!LO:DY:a	!	!	!	!	!	!	!	!	!
8G\L	f	24b\LL	.	24b\LL	.	1ryy	.	.	1ryy	1ryy
.	.	24cc\	.	24cc\	.	.	.	.	.	.
.	.	24dd\JJ	.	24dd\JJ	.	.	.	.	.	.
8C\	.	24ee\LL	.	24ee\LL	.	.	.	.	.	.
.	.	24ff#X\	.	24ff\	.	.	.	.	.	.
.	.	24gg\JJ	.	24gg\JJ	.	.	.	.	.	.
8D\	.	8g/L	.	8g/L	.	.	.	.	.	.
!	!	!	!	!LO:SIC:o:s=:v:znak podziału tekstu	!	!	!	!	!	!
8D\J	.	8a/J	.	8a/J	.	.	.	.	.	.
!	!	!	!	!LO:LB:g=original	!	!	!	!	!	!
!	!	!	!LO:DY:a	!	!LO:DY:b	!	!	!	!	!
4GG/	.	8g/	f	8g/L	f	.	.	.	.	.
.	.	(32d/LLL	.	32d/LL	.	.	.	.	.	.
.	.	32c/	.	32c/	.	.	.	.	.	.
.	.	32B/	.	32B/	.	.	.	.	.	.
.	.	32A/JJJ)	.	32A/JJJ	.	.	.	.	.	.
4r	.	4G/	.	4G/	.	.	.	.	.	.
=21	=21	=21	=21	=21	=21	=21	=21	=21	=21	=21
!	!LO:DY:a	!	!LO:DY:a	!	!LO:DY:a	!	!	!	!	!
8G\L	p	8b\L	p	8dd\L	p	1ryy	4gg\	spi-	1ryy	1ryy
8G\	.	8b\	.	8dd\	.	.	.	.	.	.
8G\	.	8b\	.	8dd\	.	.	8gg\	-ri-	.	.
!	!	!LO:SIC:s=8b	!	!	!	!	!	!	!	!
8G\J	.	8cc\J	.	8dd\J	.	.	8g\	-tus	.	.
8G\L	.	8b\L	.	8ee\L	.	.	8ee\	San-	.	.
8G\	.	8b\J	.	8dd\	.	.	8dd\	-cte	.	.
8C\	.	8g/L	.	8ee\	.	.	4ee\	De-	.	.
8C\J	.	8g/J	.	8ee\J	.	.	.	.	.	.
=22	=22	=22	=22	=22	=22	=22	=22	=22	=22	=22
8BB/L	.	8b/L	.	8dd\L	.	1ryy	16dd\LL	.	1ryy	1ryy
.	.	.	.	.	.	.	16gg\JJ	.	.	.
8C/	.	8a/	.	8cc\	.	.	16ff#X\LL	.	.	.
.	.	.	.	.	.	.	16ee\JJ	.	.	.
8D/	.	8g/	.	8b\	.	.	16dd\LL	.	.	.
.	.	.	.	.	.	.	16cc\	.	.	.
8DD/J	.	8f#X/J	.	8a\J	.	.	16b\	.	.	.
.	.	.	.	.	.	.	16a\JJ	.	.	.
!LO:TX:a:t=P:mixed beam:problem	!	!	!	!	!	!	!	!	!	!
8GG/L	.	8g/L	.	8b\L	.	.	4g/	-us	.	.
8GG/	.	8g/	.	8b\	.	.	.	.	.	.
8G\	.	8b/	.	8dd\	.	.	16g\LL	mi-	.	.
.	.	.	.	.	.	.	16a\JJ	.	.	.
8G\J	.	8b/J	.	8dd\J	.	.	16b\LL	-se-	.	.
.	.	.	.	.	.	.	16cc#X\JJ	.	.	.
!	!	!LO:LB:g=original	!	!	!	!	!	!	!	!
=23	=23	=23	=23	=23	=23	=23	=23	=23	=23	=23
!LO:TX:a:t=P:mixed beam:problem	!	!	!	!	!	!	!	!	!	!
8F#X\L	.	8a/L	.	8dd\L	.	1ryy	24dd\LL	-re-	1ryy	1ryy
.	.	.	.	.	.	.	24ff#X\	.	.	.
.	.	.	.	.	.	.	24ee\JJ	.	.	.
8F#\	.	8a/	.	8dd\	.	.	24dd\LL	-re	.	.
.	.	.	.	.	.	.	24cc#X\	.	.	.
.	.	.	.	.	.	.	24b\JJ	.	.	.
.	.	.	.	.	.	.	8qqa/	.	.	.
8E\	.	8g/	.	8cc#X\	.	.	4g\	no-	.	.
8AA/J	.	8g/J	.	8cc#\J	.	.	.	.	.	.
8D\L	.	8f#X/L	.	8dd\L	.	.	4f#X/	-bis	.	.
8D\	.	8f#/	.	8dd\	.	.	.	.	.	.
8D\	.	8a/	.	8ccn\	.	.	8ccn\	mi-	.	.
8D\J	.	8a/J	.	8cc\J	.	.	8cc\	-se-	.	.
!	!	!	!	!	!	!	!LO:LB:g=original	!	!	!
=24	=24	=24	=24	=24	=24	=24	=24	=24	=24	=24
8D\L	.	8a/L	.	8cc\L	.	1ryy	16cc\	-re-	1ryy	1ryy
.	.	.	.	.	.	.	16ff#X\	-re	.	.
8D\	.	8a/	.	8cc\	.	.	16aa\LL	no-	.	.
.	.	.	.	.	.	.	16gg\JJ	.	.	.
8D\	.	8a/	.	8cc\	.	.	16ff#X\LL	-bis	.	.
.	.	.	.	.	.	.	16ee\JJ	.	.	.
8D\J	.	8a/J	.	8cc\J	.	.	16dd\LL	.	.	.
.	.	.	.	.	.	.	16cc\JJ	.	.	.
!LO:TX:a:t=P:mixed beam:problem	!	!	!	!	!	!	!	!	!	!
8G\L	.	8a/L	.	8cc\L	.	.	8cc\	.	.	.
8GG/	.	8g/	.	8b\	.	.	8b\	.	.	.
!	!	!	!	!LO:SIC:o:s=:v:kasownik dopisany innym tuszem	!	!	!	!	!	!
8GG/	.	8dd/	.	8ffn\	.	.	8ffn\	mi-	.	.
8GG/J	.	8dd/J	.	8ff\J	.	.	8ff\	-se-	.	.
=25	=25	=25	=25	=25	=25	=25	=25	=25	=25	=25
8GG/L	.	8dd\L	.	8ff\L	.	1ryy	16ff\LL	-re-	1ryy	1ryy
.	.	.	.	.	.	.	16ee\	.	.	.
8GG/	.	8dd\	.	8ff\	.	.	16dd\	.	.	.
.	.	.	.	.	.	.	16cc\JJ	.	.	.
!	!	!	!	!	!	!	!LO:SIC:o:s=:v:nadliczbowa sylaba	!	!	!
8GG/	.	8dd\	.	8ff\	.	.	16b\LL	-re-	.	.
.	.	.	.	.	.	.	16a\JJ	.	.	.
8GG/J	.	8dd\J	.	8ff\J	.	.	16g\LL	-re	.	.
.	.	.	.	.	.	.	16f\JJ	.	.	.
!	!	!LO:TX:a:t=P:mixed beam:problem	!	!	!	!	!LO:SIC:o:s=:v:wartości poprawiane	!	!	!
8C\L	.	8dd\L	.	8ff\L	.	.	8f/	no-	.	.
8C\	.	8cc\	.	8ee\	.	.	8e/	-bis	.	.
8E\	.	8g/	.	8cc\	.	.	16cc\LL	mi-	.	.
.	.	.	.	.	.	.	16ee\JJ	.	.	.
8E\J	.	8g/J	.	8cc\J	.	.	16cc\LL	-se-	.	.
.	.	.	.	.	.	.	16g\JJ	.	.	.
!LO:LB:g=original	!	!	!	!	!	!	!	!	!	!
=26	=26	=26	=26	=26	=26	=26	=26	=26	=26	=26
.	.	.	.	.	.	.	8qqb/	.	.	.
8F\L	.	8a/L	.	8cc\L	.	1ryy	4a\	-re-	1ryy	1ryy
8F\	.	8a/	.	8cc\	.	.	.	.	.	.
8F\	.	8a/	.	8dd\	.	.	16dd\LL	.	.	.
.	.	.	.	.	.	.	16ff\	.	.	.
8F\J	.	8a/J	.	8dd\J	.	.	16dd\	.	.	.
.	.	.	.	.	.	.	16a\JJ	.	.	.
.	.	.	.	.	.	.	8qqcc/	.	.	.
8G\L	.	8b\L	.	8dd\L	.	.	4b\	.	.	.
8G\	.	8b\	.	8dd\	.	.	.	.	.	.
8G\	.	8b\	.	8ee\	.	.	16ee\LL	.	.	.
.	.	.	.	.	.	.	16gg\	.	.	.
8G\J	.	8b\J	.	8ee\J	.	.	16ee\	.	.	.
.	.	.	.	.	.	.	16b\JJ	.	.	.
!	!	!	!	!	!	!	!LO:LB:g=original	!	!	!
=27	=27	=27	=27	=27	=27	=27	=27	=27	=27	=27
.	.	.	.	.	.	.	8qqdd/	.	.	.
8A\L	.	8cc\L	.	8ee\L	.	1ryy	4cc\	.	1ryy	1ryy
8A\	.	8cc\	.	8ee\	.	.	.	.	.	.
8F\	.	8dd\	.	8ff\	.	.	16ff\LL	.	.	.
.	.	.	.	.	.	.	16aa\	.	.	.
8F\J	.	8dd\J	.	8ff\J	.	.	16ff\	.	.	.
.	.	.	.	.	.	.	16dd\JJ	.	.	.
!	!	!	!	!LO:LB:g=original	!	!	!	!	!	!
8G\L	.	8cc\L	.	8ee\L	.	.	8cc\	.	.	.
8G\	.	8b\	.	8dd\	.	.	8b\	-re	.	.
8G\	.	8b\	.	8dd\	.	.	16g\LL	mi-	.	.
.	.	.	.	.	.	.	16b\JJ	.	.	.
8G\J	.	8b\J	.	8dd\J	.	.	16dd\LL	-se-	.	.
.	.	.	.	.	.	.	16ee\JJ	.	.	.
=28	=28	=28	=28	=28	=28	=28	=28	=28	=28	=28
8G\L	.	8b\L	.	8dd\L	.	1ryy	16ff\LL	-re-	1ryy	1ryy
.	.	.	.	.	.	.	16ee\	.	.	.
8G\	.	8b\	.	8dd\	.	.	16dd\	.	.	.
.	.	.	.	.	.	.	16cc\JJ	.	.	.
8G\	.	8b\	.	8dd\	.	.	16b\LL	.	.	.
.	.	.	.	.	.	.	16a\JJ	.	.	.
8G\J	.	8b\J	.	8dd\J	.	.	16g\LL	-re	.	.
.	.	.	.	.	.	.	16ff\JJ	.	.	.
!LO:TX:a:t=P:mixed beam:problem	!	!	!	!	!	!	!	!	!	!
8C\L	.	8g/L	.	8ee\L	.	.	(16ee\LL	no-	.	.
.	.	.	.	.	.	.	16cc\JJ) 16a\	.	.	.
8F\	.	8f/J	.	8dd\J	.	.	(16dd\LL	.	.	.
.	.	.	.	.	.	.	16a\JJ)	.	.	.
.	.	8qqe/	.	8qqcc/	.	.	8qqcc/	.	.	.
8G\	.	4d/	.	4bm\	.	.	4bm\	.	.	.
!LO:SIC:o:s=:v:specyficzne segno?	!	!	!	!	!	!	!	!	!	!
8GG/J	.	.	.	.	.	.	.	.	.	.
!	!	!LO:LB:g=original	!	!	!	!	!	!	!	!
=29	=29	=29	=29	=29	=29	=29	=29	=29	=29	=29
!LO:TX:t=Da Capo Finis	!	!LO:SIC:o:s=:v:incipit powtórki	!	!LO:SIC:o:s=:v:incipit powtórki	!	!	!	!	!	!
1ryy	.	8e/L	.	2cc\	.	1ryy	4cc\	-bis	1ryy	1ryy
.	.	8e/	.	.	.	.	.	.	.	.
.	.	8e/	.	.	.	.	4r	.	.	.
!	!	!LO:SIC:o:s=:v:kreska z dwiema fermatami	!	!	!	!	!	!	!	!
.	.	8e/J	.	.	.	.	.	.	.	.
!	!	!LO:TX:a:t=Da Capo	!	!LO:TX:a:t=Da Capo Finał	!	!	!	!	!	!
.	.	2ryy	.	2g/	.	.	2r	.	.	.
=30	=30	=30	=30	=30	=30	=30	=30	=30	=30	=30
!	!	!	!	!	!	!	!LO:SIC:o:s=:v:pauzami wskazana liczba taktów da capo	!	!	!
1ryy	.	1ryy	.	1ryy	.	1ryy	00r	.	1ryy	1ryy
=31	=31	=31	=31	=31	=31	=31	=31	=31	=31	=31
1ryy	.	1ryy	.	1ryy	.	1ryy	.	.	1ryy	1ryy
=32	=32	=32	=32	=32	=32	=32	=32	=32	=32	=32
1ryy	.	1ryy	.	1ryy	.	1ryy	.	.	1ryy	1ryy
=33	=33	=33	=33	=33	=33	=33	=33	=33	=33	=33
1ryy	.	1ryy	.	1ryy	.	1ryy	.	.	1ryy	1ryy
=34	=34	=34	=34	=34	=34	=34	=34	=34	=34	=34
1ryy	.	1ryy	.	1ryy	.	1ryy	00r	.	1ryy	1ryy
=35	=35	=35	=35	=35	=35	=35	=35	=35	=35	=35
1ryy	.	1ryy	.	1ryy	.	1ryy	.	.	1ryy	1ryy
=36	=36	=36	=36	=36	=36	=36	=36	=36	=36	=36
1ryy	.	1ryy	.	1ryy	.	1ryy	.	.	1ryy	1ryy
=37	=37	=37	=37	=37	=37	=37	=37	=37	=37	=37
!	!	!	!	!LO:SIC:o:s=:v:kreska z dwiema fermatami	!	!	!	!	!	!
1ryy	.	1ryy	.	1ryy	.	1ryy	.	.	1ryy	1ryy
==	==	==	==	==	==	==	==	==	==	==
*-	*-	*-	*-	*-	*-	*-	*-	*-	*-	*-
!!!system-decoration: [(s1,s2)][(s3,s4)][(s5,s6)][(s7)]
!!!RDF**dynam: p = pia
!!!RDF**dynam: f = for
!!!EED: Leszek Kubiak
!!!EST: 2020-10-22
!!!ENC: Kamil Watkowski
!!!END: 2020-05-21
